!!!!SEGMENT: pl-wumfc--n44051--002_noskowski-zygmunt--dwie-piesni-op-70-na-rozdrozu.krn
!!!cenid: 18xx:4180
!!!COM: Noskowski, Zygmunt
!!!COM-rismID: pe106604
!!!CDT: 1846/05/02-1909/07/23
!!!CNT: Polish
!!!GTL: Dwie pieśni op. 70
!!!OTL: Na rozdrożu
!!!PDT:
!!!AGN:
!!!SMS-siglum: PL-Wumfc
!!!SMS-shelfmark: N44051
!!!SMS-shelfwork: 002 G
!!!SMS-variant:
!!!SMS-altvar:
!!!NIFC-rismSourceID: 1001129985
!!!NIFC-rismChildID: 1001129985
!!!NIFC-islandoraID: pl-wumfc:9498
!!!URL-pdf-islandora: https://repozytorium.nifc.pl/islandora/object/pl-wumfc%3A9498/datastream/PDF/view
!!!URL-scan: https://polish.musicsources.pl/pl/lokalizacje/galeria/druki-muzyczne/12492-2-songs/1 @EN{Scan on Polish Music Sources Website} @PL{Skany w portalu Dziedzictwo Muzyki Polskiej w otwartym dostępie}
!!!ONB-nifc: UWAGA: w zbiorze 1. Pytasz się, 2. Na rozdrożu
!!!AIN: 2 piano 1 vox
!!!key: G
**kern	**kern	**dynam	**kern	**text	**dynam
*part3	*part2	*part2	*part1	*part1	*part1
*staff3	*staff2	*	*staff1	*staff1	*
*I"Pianoforte	*I"Fortepian.	*	*I"Głos.	*	*
*	*I'pf	*	*I'voce umana	*	*
*Ipiano	*Ipiano	*	*Ivox	*	*
*ICklav	*ICklav	*	*ICvox	*	*
*clefF4	*clefG2	*	*clefG2	*	*
*k[f#]	*k[f#]	*	*k[f#]	*	*
*G:	*G:	*	*G:	*	*
*M2/4	*M2/4	*	*M2/4	*	*
=1	=1	=1	=1	=1	=1
*	*^	*	*	*	*
!	!	!	!	!LO:TX:a:B:t=Allegretto	!	!
!	!	!	!	!LO:TX:a:B:t=Allegretto giocoso.	!	!
8GG/	8f#/L	8r	f	2r	.	.
4D^^\ 4G	8e^^/J	8B\	.	.	.	.
.	8.d^^/L	8r	.	.	.	.
8D\ 8G	.	8B\	.	.	.	.
.	16d#X/Jk	.	.	.	.	.
=2	=2	=2	=2	=2	=2	=2
8DD/	8f#/L	8r	.	2r	.	.
4D\ 4G	(24e/L	8B\	.	.	.	.
.	24f#/	.	.	.	.	.
.	24e/JJ)	.	.	.	.	.
.	8dn/L	8r	.	.	.	.
8Dn\ 8G	8d#X/J	8B\	.	.	.	.
=3	=3	=3	=3	=3	=3	=3
8AA/	8f#/L	8r	mf	2r	.	.
4D^^\ 4F#	8e^^/J	8c\	.	.	.	.
.	8.dn^^/L	8r	.	.	.	.
8D\ 8F#	.	8c\	.	.	.	.
.	16d#X/Jk	.	.	.	.	.
=4	=4	=4	=4	=4	=4	=4
8DD/	8f#/L	8r	.	2r;	.	.
4D\ 4F#	(24e/L	8c\	.	.	.	.
.	24f#/	.	.	.	.	.
.	24e/JJ)	.	.	.	.	.
.	8dn/L	4ryy	.	.	.	.
8D;\ 8F#	8c;/J 8d 8a	.	.	.	.	.
*	*v	*v	*	*	*	*
=5	=5	=5	=5	=5	=5
!	!	!	!	!	!LO:DY:a
8GG/	8r	mf	8.b\	Tam	f
4D\ 4G	4B/ 4d 4g	.	.	.	.
.	.	.	16cc\	wdo-	.
.	.	.	8dd\	-li-	.
8D\ 8G	8B/ 8d 8g	.	8ee\	-nie	.
!LO:LB:g=original	!LO:LB:g=original	!	!LO:LB:g=original	!	!
=6	=6	=6	=6	=6	=6
2BB/	8r	.	8dd\	zie-	.
.	4G/ 4d 4g	.	4g/	-lo-	.
.	8G/ 8d 8f#	.	8f#/	-nej	.
=7	=7	=7	=7	=7	=7
!	!	!	!	!	!LO:DY:a
2C/	8r	.	8.a/	Sto-	p
.	4G/ 4c 4e	.	.	.	.
.	.	.	16g/	-i	.
.	.	.	8e/	do-	.
.	8c/ 8e 8g	.	8cc\	-mek	.
=8	=8	=8	=8	=8	=8
2GG/	8e/ 8g 8cc	.	8cc\	bia-	.
.	4d/ 4g 4b	>	4b\	-ły,	.
.	8B/ 8d 8g	]]	8r	.	.
=9	=9	=9	=9	=9	=9
!	!	!	!LO:TX:a:t=Poco più tranquillo.	!	!LO:DY:a
4FF#/	8r	p	8a/	Sto-	p
.	8c/ 8d 8a	.	(16dd\LL	-i	.
.	.	.	16a\JJ)	.	.
4F#\	8r	.	8g/	chat-	.
.	8c/ 8d 8a	.	8a/	-ka	.
=10	=10	=10	=10	=10	=10
4G\	8r	.	8cc\	u-	.
.	4B-X/ 4d 4g	.	4b-X\	-bo-	.
4E\	.	.	.	.	.
.	8B-/ 8d 8g	.	8g/	-ga	.
!LO:LB:g=original	!LO:LB:g=original	!	!LO:LB:g=original	!	!
=11	=11	=11	=11	=11	=11
2AA/	8b-X/L	.	8b-X\	Na	.
!	!LO:TX:b:i:t=colla parte	!	!LO:TX:a:t=sost.	!	!
.	8A#X/J 8g 8a	.	8a/	wierz-	.
.	8d/L 8g 8bn	.	8.ff#\	-choł-	.
.	8e/J 8g 8cc#X	.	.	.	.
.	.	.	16ee\	-ku	.
=12	=12	=12	=12	=12	=12
4D\	8r	.	8ee\	ska-	.
.	4d/ 4f# 4dd	.	4dd\	-ły.	.
4DD/	.	.	.	.	.
.	8cn/ 8f# 8a#X	.	8r	.	.
=13	=13	=13	=13	=13	=13
!	!	!	!LO:TX:a:B:t=Tempo I.	!	!LO:DY:a
8GG/	8B/ 8g 8b	f	8.bn\	W dom-	f
4D^^\ 4G	4B^^/ 4g 4b	.	.	.	.
.	.	.	16cc\	-ku	.
.	.	.	8dd\	dum-	.
8D\ 8G	8B/ 8g 8b	>]	8ee\	-na	.
=14	=14	=14	=14	=14	=14
4BB/	8r	mf	8dd\	dziew-	.
.	4G/ 4d 4g	.	4g/	-czy-	.
4BBB/ 4BB	.	.	.	.	.
.	8G/ 8d#X 8f#	.	8f#/	-na	.
=15	=15	=15	=15	=15	=15
4CC/ 4C	8r	.	8.a/	Czar-	.
.	8G/ 8e	.	.	.	.
.	.	.	16g/	-nem	.
4EE^^/ 4E	4G^^/ 4B 4dn	.	(16e/LL	błys-	.
.	.	.	16g/JJ)	.	.
.	.	.	(16b\LL	-ka	.
.	.	.	16dd\JJ)	.	.
!LO:LB:g=original	!LO:LB:g=original	!	!LO:LB:g=original	!	!
=16	=16	=16	=16	=16	=16
4AA/	8A'/ 8c	.	8dd\	o-	.
.	4c^^/ 4e 4a	>	4cc\	-kiem,	.
(16A\LL	.	.	.	.	.
16G\	.	.	.	.	.
16F#\	8c/ 8e 8a	]]	8r	.	.
16E\JJ)	.	.	.	.	.
=17	=17	=17	=17	=17	=17
*	*^	*	*	*	*
!	!	!	!	!LO:TX:a:t=Più tranquillo.	!	!LO:DY:a
4D#X\	8r	4.ryy	p	8.b\	W chat-	p
.	8B/ 8f# 8a	.	.	.	.	.
.	.	.	.	16b\	-ce	.
4Dn\	8r	.	.	(16cc\LL	dziew-	.
.	.	.	.	16b\JJ)	.	.
.	(16a/LL	8B\ 8e	.	16a/	-czę	.
.	16g#X/JJ)	.	.	16g#X/	u-	.
*	*v	*v	*	*	*	*
=18	=18	=18	=18	=18	=18
2C/	8b\	.	4ee\	-ro-	.
.	4A/ 4e 4a	.	.	.	.
.	.	.	8a/	-cze,	.
.	8A/ 8e 8gn	.	16r	.	.
.	.	.	16b\	Jak	.
=19	=19	=19	=19	=19	=19
4AA/	4c/ 4e-X 4g	.	(8.cc\L	kwiat	.
.	.	.	32dd\LL	.	.
.	.	.	32cc\JJJ)	.	.
4D\	4c/ 4d 4f#	.	8.b\	nad	.
.	.	.	16a/	po-	.
=20	=20	=20	=20	=20	=20
4GG/ 4D	8B/ 8d 8f#	.	8f#/	-to-	.
.	4B/ 4d 4g	<	4g/	-kiem.	.
4GG/	.	.	.	.	.
.	8B/ 8d 8g	[[	8r	.	.
!LO:PB:g=original	!LO:PB:g=original	!	!LO:PB:g=original	!	!
=21	=21	=21	=21	=21	=21
!	!	!	!LO:TX:a:t=Risoluto	!	!LO:DY:a
4DD^^/ 4AA 4D	4A^^/ 4d 4f# 4a	f	8.a/	Gład-	f
.	.	.	16b\	-ka	.
8DD/L 8AA 8D	8A/L 8d 8f# 8a	.	(16cc#X\LL	dro-	.
.	.	.	16b\JJ)	.	.
8DD/J 8AA 8D	8A/J 8d 8f# 8a	.	16a/	-ga	.
.	.	.	16b\	do-	.
=22	=22	=22	=22	=22	=22
4DD^^/ 4AA 4D	4A^^/ 4d 4f# 4a	.	(16a/LL	-li-	.
.	.	.	16g/JJ)	.	.
.	.	.	4f#/	-ną	.
8DD/L 8AA 8D	8A/L 8d 8f#	.	.	.	.
8DD/J 8AA 8D	8A/J 8d 8f#	.	8f#/	Do	.
=23	=23	=23	=23	=23	=23
4DD^^/ 4AA 4E	4G^^/ 4A 4c#X 4e	.	(8.e/L	dum-	.
.	.	.	16f#/Jk)	.	.
8DD/L 8AA 8E	8A/L 8c# 8g 8a	.	(16g/LL	-nej	.
.	.	.	16a/JJ)	.	.
8DD/J 8AA 8E	8A/J 8c# 8g 8a	.	(16b\LL	dziew-	.
.	.	.	16dd\JJ)	.	.
=24	=24	=24	=24	=24	=24
4DD^^/ 4AA 4D	4A^^/ 4d 4f# 4a	.	(16cc#X\LL	-czy-	.
.	.	.	16b\JJ)	.	.
.	.	.	4a/	-ny,	.
8DD/L 8D	8A/L 8d 8f# 8a	>	.	.	.
8CCn/J 8Cn	8A/J 8e-X 8fn 8a	]]	8r	.	.
=25	=25	=25	=25	=25	=25
!	!	!	!	!	!LO:DY:a
4BBB-X/ 4BB-X	4B-X/ 4d 4fn 4b-X	p	8.dd\	Stro-	mf
.	.	.	16ee-X\	-ma	.
8BBB-/L 8BB-	8c/L 8e-X 8f 8a	.	(16bn\LL	ścież-	.
.	.	.	16ccn\JJ)	.	.
8BBB-/J 8BB-	8c/J 8e- 8f 8a	.	16dd\	-ka	.
.	.	.	16ee-\	do	.
!LO:LB:g=original	!LO:LB:g=original	!	!LO:LB:g=original	!	!
=26	=26	=26	=26	=26	=26
4BBB-X/ 4BB-X	4B-X/ 4d 4fn 4b-X	.	8ffn\	cie-	.
.	.	.	4b-X\	-bie,	.
8DD/L 8D	8B-/L 8f	.	.	.	.
8DD/J 8D	8B-/J 8f	.	8r	.	.
=27	=27	=27	=27	=27	=27
4CC/ 4C	4B-X/ 4e-X 4g	.	8.ee-X\	Kwiat-	.
.	.	.	16dd\	-ku	.
8CC/L 8C	8B-/L 8en 8g	.	(16cc\LL	mój	.
.	.	.	16dd\JJ)	.	.
8CC/J 8C	8B-/J 8e 8g	.	(16cc/LL	je-	.
.	.	.	16g/JJ)	.	.
=28	=28	=28	=28	=28	=28
4FFn/ 4Fn	4A/ 4fn	<	(16b-X/LL	-dy-	.
.	.	.	16a/JJ)	.	.
.	.	.	4a/	-ny!	.
8FF/L 8F	8A/L 8c 8f 8a	.	.	.	.
8EEn/J 8En	8A/J 8c#X 8g 8a	[	8r	.	.
=29	=29	=29	=29	=29	=29
!	!	!	!	!	!LO:DY:a
4DD/ 4D	4A^^/ 4d 4f#X 4a	f	8.a/	Lecz	f
.	.	.	16bn\	nie	.
8DD/L 8AA 8D	8A/L 8d 8f# 8a	.	(16cc#X\LL	pój-	.
.	.	.	16b\JJ)	.	.
8DD/J 8AA 8D	8A/J 8d 8f# 8a	.	16a/	-dę	.
.	.	.	16b\	do-	.
=30	=30	=30	=30	=30	=30
4DD^^/ 4AA 4D	4A^^/ 4d 4f# 4a	.	(16a/LL	-li-	.
.	.	.	16g/JJ)	.	.
.	.	.	4f#/	-ną,	.
8DD/L 8AA 8D	8A/L 8d 8f#	.	.	.	.
8DD/J 8AA 8D	8A/J 8d 8f#	.	8r	.	.
!LO:LB:g=original	!LO:LB:g=original	!	!	!LO:LB:g=original	!
=31	=31	=31	=31	=31	=31
4DD^^/ 4AA 4E	4G^^/ 4A 4c#X 4e	.	8.e/	Choć	.
.	.	.	16f#/	sze-	.
8DD/L 8AA 8E	8A/L 8c# 8g 8a	.	(16g/LL	-ro-	.
.	.	.	16a/JJ)	.	.
8DD/J 8AA 8E	8A/J 8c# 8g 8a	.	(16b\LL	-ka	.
.	.	.	16dd\JJ)	.	.
=32	=32	=32	=32	=32	=32
4DD^^/ 4AA 4E	4A^^/ 4d 4f# 4a	.	(16cc#X\LL	dro-	.
.	.	.	16b\JJ)	.	.
.	.	.	4a/	-ga:	.
8DD/L 8D	8d/L 8f# 8a	.	.	.	.
8DD/J 8D	8c#X/J 8f# 8a	.	8r	.	.
=33	=33	=33	=33	=33	=33
4GG^^/ 4D	4B^^/ 4g 4b	<	8.b\	ścież-	.
.	.	.	16cc#X\	-ką	.
!	!	!	!	!	!LO:DY:a
8GG/L 8G	8B/L 8f# 8b	.	(16dd\LL	bli-	<
.	.	.	16cc#\JJ)	.	.
8GG/J 8G	8B/J 8e 8b	[	16dd\	-żej	.
.	.	.	16ee\	do	[[
=34	=34	=34	=34	=34	=34
!	!LO:TX:b:i:t=colla parte	!	!LO:TX:a:i:t=sost.	!	!
8FF#/L	8c#X/L 8f# 8a#X	.	(8ff#\L	szczęś-	.
8AA#X/J	8e/J 8f# 8cc#X	.	8ee\J)	.	.
8BB/L	8d/L 8f# 8b	.	8dd\	-cia,	.
8GG/J	8B/J 8d 8e	.	(16cc#X\LL	Do	.
.	.	.	16b\JJ)	.	.
=35	=35	=35	=35	=35	=35
4AAn/	4An/ 4d 4f#	.	(8dd/L	gwiazd	.
.	.	.	8f#/J)	.	.
4AAA/ 4AA	8B/L 8d 8g#X	.	(16g#X/LL	i	.
.	.	.	16a/JJ)	.	.
.	8A/J 8c#X 8gn	.	(16b\LL	do	.
.	.	.	16cc#X\JJ)	.	.
!LO:LB:g=original	!LO:LB:g=original	!	!LO:LB:g=original	!	!
=36	=36	=36	=36	=36	=36
4DD/ 4AA	4A/ 4d 4f#	.	8ee\	Bo-	.
.	.	.	4dd\	-ga.	.
4r	(16d/LL	.	.	.	.
.	16c#X/	.	.	.	.
.	16d/	.	8r	.	.
.	16d#X/JJ)	.	.	.	.
=37	=37	=37	=37	=37	=37
*	*^	*	*	*	*
!	!	!	!	!LO:TX:a:B:t=Tempo I.	!	!
8GG/	8f#/L	8r	mf	2r	.	.
4D\ 4G	8e/J	8B\	.	.	.	.
.	8.dn^^/L	8r	.	.	.	.
8D\ 8G	.	8B\	.	.	.	.
.	16d#X/Jk	.	.	.	.	.
=38	=38	=38	=38	=38	=38	=38
8DD/	8f#/L	8r	.	2r	.	.
4D\ 4G	(24e/L	8B\	.	.	.	.
.	24f#/	.	.	.	.	.
.	24e/JJ)	.	.	.	.	.
.	8dn/L	8r	.	.	.	.
8Dn\ 8G	8d#X/J	8B\	.	.	.	.
=39	=39	=39	=39	=39	=39	=39
8AA/	8f#/L	8r	.	2r	.	.
4D\ 4F#	8e/J	8c\	.	.	.	.
.	8.dn^^/L	8r	.	.	.	.
8D\ 8F#	.	8c\	.	.	.	.
.	16d#X/Jk	.	.	.	.	.
=40	=40	=40	=40	=40	=40	=40
8DD/	8f#/L	8r	.	2r;	.	.
4D\ 4F#	(24e/L	8c\	.	.	.	.
.	24f#/	.	>	.	.	.
.	24e/JJ)	.	.	.	.	.
.	8dn/L	4ryy	.	.	.	.
8D;\ 8F#	8c;/J 8d 8a	.	]	.	.	.
!LO:LB:g=original	!LO:LB:g=original	!	!	!LO:LB:g=original	!	!
*	*v	*v	*	*	*	*
=41	=41	=41	=41	=41	=41
!	!	!	!	!	!LO:DY:a
8GG/	8r	p	8.b\	A	mf
4D\ 4G	4B/ 4d 4g	.	.	.	.
.	.	.	16cc\	więc	.
.	.	.	8dd\	wgó-	.
8D\ 8G	8B/ 8d 8g	.	8ee\	-rę	.
=42	=42	=42	=42	=42	=42
2BB/	8r	.	8dd\	do	.
.	4G/ 4d 4g	.	4g/	cie-	.
.	8G/ 8d 8f#	.	8f#/	-bie,	.
=43	=43	=43	=43	=43	=43
2C/	8r	.	8.a/	Mo-	.
.	4G/ 4c 4e	.	.	.	.
.	.	.	16g/	-dro-	.
.	.	.	8e/	-o-	.
.	8c/ 8e 8g	.	8cc\	-kie	.
=44	=44	=44	=44	=44	=44
4GG/	8e/ 8g 8cc	.	8cc\	dzie-	.
.	4d/ 4g 4b	.	8b\	-cię!	.
4G\	.	.	8ryy	.	.
.	8B/ 8d 8g	.	16r	.	.
.	.	.	16b\	Ty	.
=45	=45	=45	=45	=45	=45
4F#\	8r	.	8dd\	nad	.
.	8c/ 8d 8a	.	8a/	świat	.
4D\	8r	.	8g/	mnie	.
.	8c/ 8d 8f#	.	8a/	u-	.
!LO:LB:g=original	!LO:LB:g=original	!	!LO:LB:g=original	!	!
=46	=46	=46	=46	=46	=46
4F#\	8r	.	8cc\	-nie-	.
.	4B-X/ 4d 4g	.	4b-X\	-siesz,	.
4E\	.	.	.	.	.
.	8B-/ 8d 8g	.	8g/	Choć	.
=47	=47	=47	=47	=47	=47
!	!	!	!	!	!LO:DY:a
2AA/	8b-X/L	<	(8b-X/L	bę-	<
.	8c#X/J 8g 8a	.	8a/J)	.	.
.	8d/L 8g 8bn	.	8.ff#\	-dę	[
.	8e/J 8g 8cc#X	[[	.	.	.
.	.	.	16ee\	na	.
=48	=48	=48	=48	=48	=48
4D\	8r	.	8ee\	świe-	.
.	4d/ 4f# 4dd	>	4dd\	-cie.	.
4DD/	.	.	.	.	.
.	8cn/ 8f# 8a	]]	8r	.	.
=49	=49	=49	=49	=49	=49
4GG/	8B/L 8fn 8a	.	8dd\	Przy	.
.	8B/J 8f 8g	.	8ee\	twem	.
4G\	8r	.	8cc\	ser-	.
.	8c/ 8e 8g	.	16b\	-cu	.
.	.	.	16a/	jak	.
=50	=50	=50	=50	=50	=50
4GG/	8r	.	8cc\	Che-	.
!	!	!	!	!	!LO:DY:a
.	4B/ 4d 4g	<	4b\	-rub	<
4G\	.	.	.	.	.
.	8B/ 8e 8g	[[	8g/	Wnie-	[[
!LO:LB:g=original	!LO:LB:g=original	!	!LO:LB:g=original	!	!
=51	=51	=51	=51	=51	=51
4GG/	8r	mf	4ffn\	-bio-	.
.	4c/ 4fn 4a	.	.	.	.
8G\L	.	.	8ee\	-sów	.
8Fn\J	8d/ 8g 8b	.	8b\	prze-	.
=52	=52	=52	=52	=52	=52
4E\	8r	.	(16cc\LL	-zro-	.
.	.	.	16dd\JJ)	.	.
.	4c/ 4g 4cc	.	4ee\	-czu,	.
4C/	.	.	.	.	.
.	8c/ 8e 8g	.	8r	.	.
=53	=53	=53	=53	=53	=53
!	!	!	!	!	!LO:DY:a
2CC/ 2C	2A/ 2d 2f#X	p	8.b\	Uj-	p
.	.	.	16a/	-rzę,	.
.	.	.	(16g#X/LL	gwia-	.
.	.	.	16a/JJ)	.	.
.	.	.	16b\	-zdy	.
.	.	.	16a/	i	.
=54	=54	=54	=54	=54	=54
!	!	!	!	!	!LO:DY:a
4BBB/ 4BB	8r	<	4dd\	Bo-	<
.	4G/ 4d 4g	.	.	.	.
8E'\L	.	.	4b\	-ga	[[
8D'\J	8B/ 8d 8g	[[	.	.	.
=55	=55	=55	=55	=55	=55
4AA#X/	8r	mf	8.dd\	Wnie-	.
.	4c#X/ 4e 4f#	.	.	.	.
.	.	.	16cc#X\	-bie	.
8F#'\L	.	.	(16b#X\LL	two-	.
.	.	.	16cc#\JJ)	.	.
8E'\J	8c#/ 8f# 8a#X	.	(16dd\LL	-ich	.
.	.	.	16cc#\JJ)	.	.
!LO:LB:g=original	!LO:LB:g=original	!	!LO:LB:g=original	!	!
=56	=56	=56	=56	=56	=56
4D\	8r	.	4ff#\	o-	.
.	4B/ 4f# 4b	.	.	.	.
4BB/	.	.	4dd\	-czu.	.
.	8f#/ 8b 8dd	.	.	.	.
=57	=57	=57	=57	=57	=57
!	!	!	!	!	!LO:DY:a
4AAn/	8f#/L 8ccn 8ee	f	8.ee\	Uj-	f
.	8d/J 8f# 8cc 8dd	.	.	.	.
.	.	.	16dd\	-rzę,	.
8DD/L 8D	8r	<	(16cc#X\LL	gwia-	.
!	!	!	!	!	!LO:DY:a
.	.	.	16dd\JJ)	.	<
8CCn/J 8Cn	8d/ 8f# 8a 8dd	[[	16ee\	-zdy	.
.	.	.	16ff#\	i	[[
=58	=58	=58	=58	=58	=58
*	*^	*	*	*	*
!	!LO:TX:b:i:t=colla parte	!	!	!LO:TX:a:i:t=sost.	!	!
4BBB/ 4BB	8g\L 8dd 8gg	4.ryy	.	(8gg\L	Bo-	.
.	8a\J 8dd#X 8ff#	.	.	8ff#\	.	.
8CC/L 8C	8e/L 8g 8cc 8ee	.	.	8ee\J)	.	.
8AAA/J 8AA	(16ddn/L	8e\ 8a	.	(16dd\LL	-ga	.
.	16cc/JJ)	.	.	16ccn\JJ)	.	.
*	*v	*v	*	*	*	*
=59	=59	=59	=59	=59	=59
8DD/ 8D	8B/ 8d 8g 8b	.	(16b\LL	Wnie-	.
.	.	.	16cc\JJ)	.	.
8r	8r	.	(16cc#X\LL	-bie	.
.	.	.	16dd\JJ)	.	.
4DD;/ 4D	4A;/ 4c 4d 4f#	.	8.ee;\	two-	.
.	.	.	16f#/	-ich	.
=60	=60	=60	=60	=60	=60
4GG/ 4D	8r	.	(16a/LL	o-	.
.	.	.	16g/JJ)	.	.
.	8B^^/ 8d 8g	.	4g/	-czu!	.
8G^^\ 8d	8g^^\ 8b 8dd 8gg	sf	.	.	.
8r	8r	.	8r	.	.
==	==	==	==	==	==
*-	*-	*-	*-	*-	*-
!!!RDF**kern: > = above
!!!RDF**kern: < = below
!!!system-decoration: s1[(s2,s3)]
!!!ENC: Filip Voros
!!!END: 2022-09-08
!!!ENC: Julita Ruszuk
!!!END: 2022-09-22
!!!YEC: Copyright 2022 Narodowy Instytut Fryderyka Chopina (https://polishscores.org)
!!!YEM: License CC-BY-4.0 (https://creativecommons.org/licenses/by/4.0)
